{ "compressionlevel":-1,
 "height":20,
 "infinite":true,
 "layers":[
        {
         "class":"plan",
         "id":2,
         "image":"graveyard.png",
         "name":"Plan",
         "opacity":1,
         "properties":[
                {
                 "name":"mesh",
                 "type":"file",
                 "value":"meshes\/graveyard.glb"
                }],
         "type":"imagelayer",
         "visible":true,
         "x":0,
         "y":0
        }, 
        {
         "class":"objects",
         "draworder":"topdown",
         "id":3,
         "name":"Objects",
         "objects":[
                {
                 "height":1846.33333333333,
                 "id":3,
                 "name":"World AABB",
                 "rotation":0,
                 "type":"world_aabb",
                 "visible":true,
                 "width":3581.66666666667,
                 "x":174.333333333333,
                 "y":161
                }, 
                {
                 "gid":1,
                 "height":16,
                 "id":16,
                 "name":"Start weapon",
                 "rotation":0,
                 "type":"loot",
                 "visible":true,
                 "width":16,
                 "x":210.5,
                 "y":895.75
                }, 
                {
                 "gid":2,
                 "height":16,
                 "id":17,
                 "name":"Start position",
                 "rotation":0,
                 "type":"player_spawn",
                 "visible":true,
                 "width":16,
                 "x":191.5,
                 "y":974.5
                }, 
                {
                 "gid":3,
                 "height":16,
                 "id":20,
                 "name":"",
                 "properties":[
                        {
                         "name":"type",
                         "type":"string",
                         "value":"zombi"
                        }],
                 "rotation":0,
                 "type":"mob_spawn",
                 "visible":true,
                 "width":16,
                 "x":318.666666666667,
                 "y":933.666666666667
                }],
         "opacity":1,
         "type":"objectgroup",
         "visible":true,
         "x":0,
         "y":0
        }],
 "nextlayerid":4,
 "nextobjectid":24,
 "orientation":"orthogonal",
 "renderorder":"right-down",
 "tiledversion":"1.11.0",
 "tileheight":32,
 "tilesets":[
        {
         "firstgid":1,
         "source":"..\/props.tsx"
        }, 
        {
         "firstgid":1,
         "source":"props.tsx"
        }],
 "tilewidth":32,
 "type":"map",
 "version":"1.10",
 "width":30
}